ukui-icon-theme-default/scalable/actions/node-delete-segment.svg

<?xml version="1.0" encoding="iso-8859-1"?>
<!-- Generator: Adobe Illustrator 24.0.0, SVG Export Plug-In . SVG Version: 6.00 Build 0)  -->
<svg version="1.1" id="n" xmlns="http://www.w3.org/2000/svg" xmlns:xlink="http://www.w3.org/1999/xlink" x="0px" y="0px"
	 viewBox="0 0 16 16" style="enable-background:new 0 0 16 16;" xml:space="preserve">
<title>16</title>
<g id="_16">
	<line style="fill:none;stroke:#808080;stroke-linecap:round;stroke-miterlimit:10;" x1="12.5" y1="12.5" x2="14.5" y2="12.5"/>
	<line style="fill:none;stroke:#808080;stroke-linecap:round;stroke-miterlimit:10;" x1="1.5" y1="12.5" x2="3.5" y2="12.5"/>
	<path style="fill:#808080;" d="M6,12v2H4v-2H6 M6,11H4c-0.552,0-1,0.448-1,1v2c0,0.552,0.448,1,1,1h2c0.552,0,1-0.448,1-1v-2
		C7,11.448,6.552,11,6,11z"/>
	<path style="fill:#808080;" d="M12,12v2h-2v-2H12 M12,11h-2c-0.552,0-1,0.448-1,1v2c0,0.552,0.448,1,1,1h2c0.552,0,1-0.448,1-1v-2
		C13,11.448,12.552,11,12,11z"/>
	<polygon style="fill:#61A232;" points="5.5,8 8,11 10.5,8 	"/>
	<rect x="7" y="6" style="fill:#61A232;" width="2" height="2"/>
	<path style="fill:#808080;" d="M6,2v2H4V2H6 M6,1H4C3.448,1,3,1.448,3,2v2c0,0.552,0.448,1,1,1h2c0.552,0,1-0.448,1-1V2
		C7,1.448,6.552,1,6,1z"/>
	<path style="fill:#808080;" d="M12,2v2h-2V2H12 M12,1h-2C9.448,1,9,1.448,9,2v2c0,0.552,0.448,1,1,1h2c0.552,0,1-0.448,1-1V2
		C13,1.448,12.552,1,12,1z"/>
	<line style="fill:none;stroke:#808080;stroke-linecap:round;stroke-miterlimit:10;" x1="6.5" y1="2.5" x2="9.5" y2="2.5"/>
	<line style="fill:none;stroke:#808080;stroke-linecap:round;stroke-miterlimit:10;" x1="1.5" y1="2.5" x2="3.5" y2="2.5"/>
	<line style="fill:none;stroke:#808080;stroke-linecap:round;stroke-miterlimit:10;" x1="12.5" y1="2.5" x2="14.5" y2="2.5"/>
</g>
</svg>

<svg id="n" xmlns="http://www.w3.org/2000/svg" viewBox="0 0 16 16"><defs><style>.cls-1{fill:none;stroke:gray;stroke-linecap:round;stroke-miterlimit:10;}.cls-2{fill:gray;}.cls-3{fill:#61a232;}</style></defs><title>16</title><g id="_16" data-name="16"><line class="cls-1" x1="12.5" y1="12.5" x2="14.5" y2="12.5"/><line class="cls-1" x1="1.5" y1="12.5" x2="3.5" y2="12.5"/><path class="cls-2" d="M6,12v2H4V12H6m0-1H4a1,1,0,0,0-1,1v2a1,1,0,0,0,1,1H6a1,1,0,0,0,1-1V12a1,1,0,0,0-1-1Z"/><path class="cls-2" d="M12,12v2H10V12h2m0-1H10a1,1,0,0,0-1,1v2a1,1,0,0,0,1,1h2a1,1,0,0,0,1-1V12a1,1,0,0,0-1-1Z"/><polygon class="cls-3" points="5.5 8 8 11 10.5 8 5.5 8"/><rect class="cls-3" x="7" y="6" width="2" height="2"/><path class="cls-2" d="M6,2V4H4V2H6M6,1H4A1,1,0,0,0,3,2V4A1,1,0,0,0,4,5H6A1,1,0,0,0,7,4V2A1,1,0,0,0,6,1Z"/><path class="cls-2" d="M12,2V4H10V2h2m0-1H10A1,1,0,0,0,9,2V4a1,1,0,0,0,1,1h2a1,1,0,0,0,1-1V2a1,1,0,0,0-1-1Z"/><line class="cls-1" x1="6.5" y1="2.5" x2="9.5" y2="2.5"/><line class="cls-1" x1="1.5" y1="2.5" x2="3.5" y2="2.5"/><line class="cls-1" x1="12.5" y1="2.5" x2="14.5" y2="2.5"/></g></svg>
